X:128
T:Coirechoille
R:Reel
B:The Athole Collection
M:C|
L:1/8
K:B Minor
FBBc d2cB|cAcd ecAc|BFBc d2cB|FBc^A B2B2:|
|:c|d2fd ceAc|d2fd cABc|d2fd ceAB|FBc^A B2B:|

